packages/core/src/svgs/tokens/mono/XCAD.svg

<svg width="24" height="24" viewBox="0 0 24 24" fill="none" xmlns="http://www.w3.org/2000/svg">
<path d="M9.4064 11.4338L5.69332 3.74609H11.0673L12.9581 8.24958H13.0051L16.4634 3.74609H22L15.3397 11.7575L19.2882 20.254H13.7289L11.6965 15.0819H11.6495L7.7003 20.254H2L9.4064 11.4338Z" fill="white"/>
</svg>

<svg xmlns="http://www.w3.org/2000/svg" width="24" height="24" fill="none" viewBox="0 0 24 24">
    <path fill="#fff" d="M9.406 11.434 5.693 3.746h5.374l1.891 4.504h.047l3.458-4.504H22l-6.66 8.012 3.948 8.496h-5.56l-2.031-5.172h-.047L7.7 20.254H2z"/>
</svg>
